Papirus-Light/24x24/panel/indicator-sensors-disk.svg

<svg xmlns="http://www.w3.org/2000/svg" width="24" height="24" version="1.1">
 <defs>
  <style id="current-color-scheme" type="text/css">
   .ColorScheme-Text { color:#31363b; } .ColorScheme-Highlight { color:#3daee9; }
  </style>
 </defs>
 <g transform="translate(1,1)">
  <path style="fill:currentColor" class="ColorScheme-Text" d="M 5,3 C 4.446,3 4,3.446 4,4 v 14 c 0,0.554 0.446,1 1,1 h 12 c 0.554,0 1,-0.446 1,-1 V 4 C 18,3.446 17.554,3 17,3 Z m 6,3 c 2.209139,0 4,1.790861 4,4 0,2.209139 -1.790861,4 -4,4 H 7 V 10 C 7,7.790861 8.790861,6 11,6 Z m 0,2 c -1.1045695,0 -2,0.8954305 -2,2 0,1.104569 0.8954305,2 2,2 1.104569,0 2,-0.895431 2,-2 0,-1.1045695 -0.895431,-2 -2,-2 z"/>
 </g>
</svg>

<svg xmlns="http://www.w3.org/2000/svg" width="24" height="24" version="1.1">
 <defs>
  <style id="current-color-scheme" type="text/css">
   .ColorScheme-Text { color:#31363b; } .ColorScheme-Highlight { color:#3daee9; }
  </style>
 </defs>
 <g transform="matrix(1,0,0,1,1,1)">
  <path style="fill:currentColor" class="ColorScheme-Text" d="M 6,4 C 5.446,4 5,4.446 5,5 V 17 C 5,17.554 5.446,18 6,18 H 16 C 16.554,18 17,17.554 17,17 V 5 C 17,4.446 16.554,4 16,4 Z M 11,6 A 4,4 0 0 1 15,10 4,4 0 0 1 11,14 H 7 V 10 A 4,4 0 0 1 11,6 Z M 11,8 A 2,2 0 0 0 9,10 2,2 0 0 0 11,12 2,2 0 0 0 13,10 2,2 0 0 0 11,8 Z"/>
 </g>
</svg>
